resources/svg/align-center-vertical-o.svg

<svg xmlns="http://www.w3.org/2000/svg" viewBox="0 0 15 15" fill="none"><path d="M15 7.5h-3.5m-8 0H0m8.5 0h-2m5 3.5h-3V4h3v7zm-5 2.5h-3v-12h3v12z" stroke="currentColor"/></svg>

<svg xmlns="http://www.w3.org/2000/svg" viewBox="0 0 15 15" fill="none"><path d="M15 7.5H11.5M3.5 7.5H0M8.5 7.5H6.5M11.5 11H8.5V4H11.5V11ZM6.5 13.5H3.5V1.5H6.5V13.5Z" stroke="black"/></svg>
